icons/blood_b_n.svg

<svg width="48" height="48" viewBox="0 0 48 48" fill="none" xmlns="http://www.w3.org/2000/svg">
<path fill-rule="evenodd" clip-rule="evenodd" d="M16 11C15.4477 11 15 11.4477 15 12V24C15 24.2652 15.1054 24.5196 15.2929 24.7071C15.4804 24.8946 15.7348 25 16 25H21C23.2091 25 25 23.2091 25 21C25 19.8053 24.4762 18.7329 23.6458 18C24.4762 17.2671 25 16.1947 25 15C25 12.7909 23.2091 11 21 11H16ZM23 15C23 16.1046 22.1046 17 21 17H17V13H21C22.1046 13 23 13.8954 23 15ZM23 21C23 19.8954 22.1046 19 21 19H17V23H21C22.1046 23 23 22.1046 23 21Z" fill="black"/>
<path d="M26 18C26 17.4477 26.4477 17 27 17H32C32.5523 17 33 17.4477 33 18C33 18.5523 32.5523 19 32 19H27C26.4477 19 26 18.5523 26 18Z" fill="black"/>
<path fill-rule="evenodd" clip-rule="evenodd" d="M38 34.0306C38 36.2228 36.2091 38 34 38H30V40H25V44H23V40H18V38H14C11.7909 38 10 36.2228 10 34.0306V10.3273C10 8.13507 11.7909 6.3579 14 6.3579H20L21.132 5.20243C22.7027 3.59919 25.2973 3.59919 26.868 5.20243L28 6.3579H34C36.2091 6.3579 38 8.13508 38 10.3273V34.0306ZM26.5714 7.75754C26.9475 8.14152 27.4625 8.3579 28 8.3579H34C35.1191 8.3579 36 9.25408 36 10.3273V27.5388C35.7222 27.3234 35.4135 27.1104 35.0748 26.9133C33.2501 25.8514 30.6105 25.2987 27.4919 27.1387C24.924 28.6538 22.5089 29.0636 19.8818 29.1195C18.711 29.1444 17.5142 29.0991 16.2308 29.0505C16.0558 29.0439 15.8789 29.0372 15.7005 29.0306C14.5326 28.9875 13.3017 28.9498 12 28.971V10.3273C12 9.25408 12.8809 8.3579 14 8.3579H20C20.5375 8.3579 21.0525 8.14151 21.4286 7.75754L22.5607 6.60207C23.3471 5.79931 24.6529 5.79931 25.4393 6.60207L26.5714 7.75754ZM15.6267 31.0292C14.4539 30.986 13.2549 30.9499 12 30.9713V34.0306C12 35.1038 12.8809 36 14 36H34C35.1191 36 36 35.1038 36 34.0306V30.3295C35.9122 30.2186 35.7913 30.0741 35.6392 29.9109C35.2727 29.5177 34.7407 29.0328 34.0689 28.6419C32.7749 27.8889 30.9145 27.4415 28.5081 28.8613C25.551 30.606 22.766 31.0586 19.9243 31.1191C18.6899 31.1453 17.4295 31.0975 16.1531 31.049C15.9779 31.0424 15.8025 31.0357 15.6267 31.0292Z" fill="black"/>
</svg>

<svg
  xmlns="http://www.w3.org/2000/svg"
  width="24"
  height="24"
  viewBox="0 0 24 24"
  fill="none"
  stroke="currentColor"
  stroke-width="2"
  stroke-linecap="round"
  stroke-linejoin="round"
>
  <path
    fill-rule="evenodd"
    d="M16 11a1 1 0 0 0-1 1v12a1 1 0 0 0 1 1h5a4 4 0 0 0 2.646-7A4 4 0 0 0 21 11zm7 4a2 2 0 0 1-2 2h-4v-4h4a2 2 0 0 1 2 2m0 6a2 2 0 0 0-2-2h-4v4h4a2 2 0 0 0 2-2"
    clip-rule="evenodd"
  />
  <path d="M26 18a1 1 0 0 1 1-1h5a1 1 0 1 1 0 2h-5a1 1 0 0 1-1-1" />
  <path
    fill-rule="evenodd"
    d="M38 34.03c0 2.193-1.79 3.97-4 3.97h-4v2h-5v4h-2v-4h-5v-2h-4c-2.21 0-4-1.777-4-3.97V10.328c0-2.192 1.79-3.97 4-3.97h6l1.132-1.155a4.02 4.02 0 0 1 5.736 0L28 6.358h6c2.21 0 4 1.777 4 3.97zM26.571 7.759a2 2 0 0 0 1.429.6h6c1.12 0 2 .896 2 1.97v17.21a8.4 8.4 0 0 0-.925-.625c-1.825-1.062-4.465-1.614-7.583.226-2.568 1.515-4.983 1.925-7.61 1.98-1.171.025-2.368-.02-3.651-.069l-.53-.02A69 69 0 0 0 12 28.972V10.327c0-1.073.88-1.97 2-1.97h6a2 2 0 0 0 1.429-.6l1.132-1.155a2.02 2.02 0 0 1 2.878 0zM15.627 31.029A67 67 0 0 0 12 30.971v3.06c0 1.073.88 1.969 2 1.969h20c1.12 0 2-.896 2-1.97v-3.7a6.998 6.998 0 0 0-1.931-1.688c-1.294-.753-3.155-1.2-5.56.22-2.958 1.744-5.743 2.197-8.585 2.257-1.234.026-2.494-.021-3.77-.07z"
    clip-rule="evenodd"
  />
</svg>
